X: 718
T: Renben qiangdao zhan liaoxian
L: 1/8
M: 2/4
K: G
e d B B [I:setbarnb 1]| 
e dB2 | 
B g e d | 
G> AB2 | 
e d e d | 
B AG2 | 
B d A G | 
E> DE2 | 
G AB2 | 
d> B A G | 
E> DE2 |]

@@@ Tune index: 9592
